X: 73
M:C
L:1/8
K:G
dG B/A/G dGBG | FDAD BDAD |
dedB dgdB | AGAB G2G H :: G |
dG B/A/G gGeG | dG B/A/G gGeG |
dBed cBAG | FGAG "DaCapo" FDEF !segno!:|

